!!!OTL: 1193. Namen und Taufe Jesu.
!!!ODT: 1850 (vor)
!!!ARE: Europa, Mitteleuropa, Deutschland, Eichsfelde
!!!SCT: E1193
!!!TXL: @@DE
!!!YEM: Copyright 1995, estate of Helmut Schaffrath.
**kern	**text
*ICvox	*
*M4/4	*
*met(c)	*
*k[b-e-]	*
*g:	*
!LO:TX:a:t=Mündlich vom Eichsfelde vor 1850.	!
{4d	Ma-
=1	=1
4.g	ri-
8a	-a
4b-	durch
4dd	'nen
=2	=2
4b-	Dorn-
8aL	-wald
8gJ	.
2a}	gieng,
=3	=3
{4b-	Ky-
8b-	-ri-
8b-	-e-
2cc	-lei-
=4	=4
2dd	-ſon!
4r}	.
{8b-L	Ma-
8ccJ	.
=5	=5
4.dd	-ri-
8cc	-a
4dd	durch
8ee-L	'nen
8ddJ	.
=6	=6
4.cc	Dorn-
8b-	-wald
4cc}	gieng,
{8ddL	der
8ccJ	.
=7	=7
4.b-	hat
8a	in
4b-	ſiebn
8ccL	Jahrn
8b-J	kein
=8	=8
4.a	Laub
8g	ge-
2a}	-tragn.
=9	=9
{4.g	Je-
8a	-ſus
4b-	und
4dd	Ma-
=10	=10
8b-L	-ri-
8aJ	.
2g}	-a!
==	==
!!!AGN: Ansinge -, Brauchtums - Lied, Kirchen - Fest, Silvester, Namenstag, und Taufe Jesu
!!!ONB: ESAC (Essen Associative Code) Database: ERK3
!!!AMT: simple quadruple
!!!AIN: vox
!!!EED: Helmut Schaffrath
!!!EEV: 1.0
!!!GTL: Ansingelieder an Volks- und Kirchenfesten.
!!!URL-scan: https://rosdok.uni-rostock.de/mcrviewer/recordIdentifier/rosdok_ppn745177999/iview2/phys_0113.iview2?x=136.82690593569214&y=482.8911269335076&scale=0.701185927818147&rotation=0&layout=singlePageLayout
!!!ENC: Anna Maria Matuszewska
!!!EEV: 2024/12/27
*-	*-
